!!!COM: Schubert, Franz
!!!CNT: Deutscher
!!!TXO: Deutsch
!!!OTL: "Kriegers Ahnung"
!!!OPR: Schwanengesang
!!!LYR: Rellstab, Ludwig
!!!ONM: No. 2
!!!ODT: 1828/
!!NB: Vocal melody only encoded.
**kern	**silbe
*clefG2	*
*k[b-e-a-]	*
*c:	*
*M3/4	*
*MM[langsam]	*
=8	=8
4r	.
4r	.
8r	.
{8g	{In
=9	=9
8.g	tie-
16g	-fer
4.cc	Ruh
8g	liegt
=10	=10
8.e-	um
16d	mich
4.c}	her}
{8B-	der
=11	=11
8.An	Waf-
16an	-fen-
4an	-bru2-
4an	-der
=12	=12
2g}	Kreis.}
4r	.
=14	=14
4r	.
4r	.
8.r	.
{16g	{Mir
=15	=15
8.g	ist
16g	das
4..a-	Herz
16g	so
=16	=16
8.f#	bang
16d	und
4g}	schwer,}
4r	.
=17	=17
4r	.
4r	.
8.r	.
{16g	{so
=18	=18
8.f#	bang,
16d	so
4g	schwer,
8r	.
8g	von
=19	=19
8.g	Sehn-
16a-	-sucht
4b-	mir
(8ddM	so
16cc	|
16dd)	|
=20	=20
[2.ee-	heiss,
=21	=21
4ee-]}	|}
4r	.
8r	.
{8ee-	{von
=22	=22
(4..ee-	Sehn-
16f)	|
4f	-sucht
=23	=23
4r	.
4f	mir
4f#	so
=24	=24
2.g}	heiss.}
=28	=28
*M4/4	*
2r	.
4r	.
8r	.
{8a-	{Wie
=29	=29
4a-	hab'
4e-	ich
4.cc	oft
8a-	so
=30	=30
4.f	su2ss
8b-	ge-
(4b-	-ruht
8e-)}	|}
{8dd-	{an
=31	=31
4cc	ih-
4dd-	-rem
4.ee-	Bu-
8cc	-sen
=32	=32
2.b-}	warm,}
8r	.
{8b-	{an
=33	=33
4b-	ih-
4cc	-rem
4.dd-	Bu-
8b-	-sen
=34	=34
2.an}	warm!}
8r	.
{8a-	{wie
=35	=35
4a-	freund-
4e-	-lich
4.cc	schien
8a-	des
=36	=36
4.f	Heer-
8b-	-des
(4b-	Gluth,
8e-)}	|}
{8dd-	{lag
=37	=37
4cc	sie
4dd-	in
4.ee-	mei-
8cc	-nem
=38	=38
2.b-}	Arm,}
{4b-	{lag
=39	=39
4b-	sie
4cc-	in
4.dd-	mei-
8b-	-nem
=40	=40
2.a-}	Arm!}
4r	.
=42	=42
2r	.
4r	.
{4c#	{Hier,
=43	=43
4.c#	wo
8c#	der
4c#	Flam-
4c#	-men
=44	=44
4.f#	du2st'-
8f#	-rer
2f#}	Schein,}
=45	=45
4r	.
{2cc#	{ach,
8c#	nur
8c#	auf
=46	=46
4.f#	Waf-
8f#	-fen
2f#}	spielt,}
=47	=47
2r	.
4r	.
{4an	{hier
=48	=48
4an	fu2hlt
4an	die
4an	Brust
4an	sich
=49	=49
4.ccn	ganz
8bn	al-
2an}	-lein,}
=50	=50
2r	.
4r	.
{4cc	{hier
=51	=51
4cc	fu2hlt
4cc	die
4cc	Brust
4cc	sich
=52	=52
4.cc	ganz
8a-	al-
[2f	-lein,
=53	=53
4f]}	|}
4r	.
4r	.
{4cc	{der
=54	=54
[2dd-	Weh-
8dd-]	|
8b-	|
8b-	-muth
8g-	|
=55	=55
(4f	Thra2-
2a-)	|
4gn	-ne
=56	=56
4f}	qullt,}
{4cc	{der
4ff	Weh-
4b-	-muth
=57	=57
2a-	Thra2-
2g	-ne
=58	=58
2f}	quillt.}
2r	.
=62	=62
*k[b-e-a-]	*
*M6/8	*
*MM[geschwind]	*
{4.g	{Herz,
8r	.
8a-	dass
8a-	der
=63	=63
4g	Trost
8g	dich
8a-	nicht
8ff	|
8dd	ver-
=64	=64
4.bn}	-la2sst,}
8r	.
{8a-	{dass
8a-	der
=65	=65
4g	Trost
8g	dich
8a-	nicht
8ff	|
8dd	ver-
=66	=66
[4.b	-la2sst
8b]}	|}
8r	.
{8e	{es
=67	=67
4an	ruft
8b	noch
4cc	man-
8dd	-che
=68	=68
[2.ee	Schlacht.
=69	=69
4ee]}	|}
8r	.
4r	.
8r	.
=71	=71
4r	.
8r	.
{(4ee	{Bald
8dd)	|
=72	=72
(4.dd	ruh'
[4.cc	|
=73	=73
4.cc_	|
4cc])	|
8b	ich
=74	=74
(4.b	wohl
4.a)}	|}
=75	=75
4r	.
8r	.
{(4a	{und
8g)	|
=76	=76
(4g	schla-
8f	|
[4.ff	|
=77	=77
4.ff_	|
4ff])	|
8ee	-fe
=78	=78
(4.ee	fest,
4dd)}	|}
8r	.
=79	=79
4r	.
8r	.
{4.dd	{Herz-
=80	=80
4.ee-	-lieb-
8cc	-ste,
8r	.
8r	.
=81	=81
[4.ff	gu-
4ff]	|
8dd-	-te
=82	=82
2.cc}	Nacht!}
=83	=83
4r	.
8r	.
{4.cc	{Herz-
=84	=84
4.cc	-lieb-
4ff	-ste,
8r	.
=85	=85
([4.g	gu-
8g]	|
8a)	|
8g	-te
=86	=86
2.f}	Nacht!}
=88	=88
{4.g	{Herz,
8r	.
8a-	dass
8a-	der
=89	=89
4g	Trost
8g	dich
8a-	nicht
8b-	|
8a-	ver-
=90	=90
4.g}	-la2sst,}
8r	.
{8b-	{dass
8b-	der
=91	=91
4a	Trost
8a	dich
8b-	nicht
8cc	|
8b-	ver-
=92	=92
[4.a	-la2sst!
8a]}	|}
8r	.
8r	.
=93	=93
4r	.
8r	.
4r	.
{8cc#	{es
=94	=94
4dd	ruft
8dd	noch
4ff	man-
8ff	-che
=95	=95
[2.ee	Schlacht.
=96	=96
4ee]}	|}
8r	.
4r	.
8r	.
=98	=98
4r	.
8r	.
{(4ee	{Bald
8dd)	|
=99	=99
(4.dd	ruh'
[4.cc	|
=100	=100
4.cc_	|
4cc])	|
8b	ich
=101	=101
(4.b	wohl
4a)}	|}
8r	.
=102	=102
4r	.
8r	.
{(4a	{und
8g)	|
=103	=103
(4g	schla-
8f	|
[4.ff	|
=104	=104
4.ff_	|
4ff])	|
8ee	-fe
=105	=105
(4.ee	fest,
4dd)}	|}
8r	.
=106	=106
4r	.
8r	.
{4.dd	{Herz-
=107	=107
4.ee-	-lieb-
4cc	-ste,
8r	.
=108	=108
[4.ff	gu-
4ff]	|
8dd-	-te
=109	=109
2.cc}	Nacht!}
=110	=110
4r	.
8r	.
{4.f#	{Herz-
=111	=111
*k[b-e-a-]	*
*M3/4	*
*MM[langsam]	*
2.g	-lieb-
=112	=112
4g	-ste,
4r	.
4r	.
=113	=113
4r	.
4..g	gu-
16g	-te
=114	=114
2.a-;}	Nacht!}
=116	=116
4r	.
4r	.
{4an	{Herz-
=117	=117
2cc	-lieb-
4g	-ste,
=118	=118
4r	.
4..g	gu-
16g	-te
=119	=119
[2.g	Nacht!
=120	=120
4g]}	|}
4r	.
4r	.
*-	*-
